X:295
T: Lighthouse
S: "Johnny O'Leary of Sliabh Luachra" (#159)
Z: B.Black
L: 1/8
M: 2/4
Q: 280
R: polka
K: D
fd Ad|fd Ad|fd/B/ AF|E2 Eg|
fd Ad|fd A>d|fd/B/ AF/A/|1 D2 De :|2\
D2 DE||
F/E/D FA|de f>e|dB AF|E2 E2|
FD FA|de f/g/f/e/|dB AF|1 D2 DE :|2\
D2 D2||
